storage/app/icons/phosphoricons/duotone/ladder-simple-duotone.svg

<svg xmlns="http://www.w3.org/2000/svg" fill="currentColor" viewBox="0 0 256 256"><path d="M192 32v192H64V32Z" opacity=".2"/><path d="M192 24a8 8 0 0 0-8 8v32H72V32a8 8 0 0 0-16 0v192a8 8 0 0 0 16 0v-32h112v32a8 8 0 0 0 16 0V32a8 8 0 0 0-8-8m-8 56v40H72V80ZM72 176v-40h112v40Z"/></svg>

<svg xmlns="http://www.w3.org/2000/svg" viewBox="0 0 256 256" fill="currentColor"><path d="M192,32V224H64V32Z" opacity="0.2"/><path d="M192,24a8,8,0,0,0-8,8V64H72V32a8,8,0,0,0-16,0V224a8,8,0,0,0,16,0V192H184v32a8,8,0,0,0,16,0V32A8,8,0,0,0,192,24Zm-8,56v40H72V80ZM72,176V136H184v40Z"/></svg>
